images/stage-mic.svg

<?xml version="1.0" encoding="UTF-8" standalone="no"?>
<svg width="60px" height="60px" viewBox="0 0 60 60" version="1.1" xmlns="http://www.w3.org/2000/svg" xmlns:xlink="http://www.w3.org/1999/xlink" xmlns:sketch="http://www.bohemiancoding.com/sketch/ns">
    <!-- Generator: Sketch 3.3.3 (12081) - http://www.bohemiancoding.com/sketch -->
    <title>stage-mic</title>
    <desc>Created with Sketch.</desc>
    <defs></defs>
    <g id="Page-1" stroke="none" stroke-width="1" fill="none" fill-rule="evenodd" sketch:type="MSPage">
        <g id="stage-mic" sketch:type="MSArtboardGroup" fill="#9B9B9B">
            <path d="M31.140625,47.4515625 L31.140625,55.09375 L38.5546875,55.09375 C40.265625,55.09375 40.265625,57.375 38.5546875,57.375 L21.4453125,57.375 C19.734375,57.375 19.734375,55.09375 21.4453125,55.09375 L28.859375,55.09375 L28.859375,47.4515625 C19.734375,46.8242188 13.0617187,39.6953125 13.0617187,30.5703125 C13.0617187,28.859375 15.4570312,28.859375 15.4570312,30.5703125 C15.4570312,38.5546875 21.9585937,45.1132813 30,45.1132813 C38.0414062,45.1132813 44.5429688,38.5546875 44.5429688,30.5703125 C44.5429688,28.859375 46.9382812,28.859375 46.9382812,30.5703125 C46.9382812,39.6953125 40.265625,46.8242188 31.140625,47.4515625 L31.140625,47.4515625 Z M40.8359375,13.5179687 L40.8359375,30.5132813 C40.8359375,36.5585938 36.0453125,41.40625 30,41.40625 C23.9546875,41.40625 19.1640625,36.5015625 19.1640625,30.5132812 L19.1640625,13.5179687 C19.1640625,7.5296875 23.9546875,2.625 30,2.625 C36.0453125,2.625 40.8359375,7.5296875 40.8359375,13.5179687 L40.8359375,13.5179687 Z M38.5546875,30.5132812 L38.5546875,27.71875 L33.421875,27.71875 C32.28125,27.71875 32.28125,26.0078125 33.421875,26.0078125 L38.5546875,26.0078125 L38.5546875,23.15625 L33.421875,23.15625 C32.28125,23.15625 32.28125,21.4453125 33.421875,21.4453125 L38.5546875,21.4453125 L38.5546875,18.59375 L33.421875,18.59375 C32.28125,18.59375 32.28125,16.8828125 33.421875,16.8828125 L38.5546875,16.8828125 L38.5546875,13.5179687 C38.5546875,8.84140625 34.6765625,5.0203125 30,5.0203125 C25.3234375,5.0203125 21.4453125,8.84140625 21.4453125,13.5179687 L21.4453125,16.8828125 L26.578125,16.8828125 C27.71875,16.8828125 27.71875,18.59375 26.578125,18.59375 L21.4453125,18.59375 L21.4453125,21.4453125 L26.578125,21.4453125 C27.71875,21.4453125 27.71875,23.15625 26.578125,23.15625 L21.4453125,23.15625 L21.4453125,26.0078125 L26.578125,26.0078125 C27.71875,26.0078125 27.71875,27.71875 26.578125,27.71875 L21.4453125,27.71875 L21.4453125,30.5132812 C21.4453125,35.1898437 25.3234375,39.0109375 30,39.0109375 C34.6765625,39.0109375 38.5546875,35.1898437 38.5546875,30.5132812 L38.5546875,30.5132812 Z" id="Shape" sketch:type="MSShapeGroup"></path>
        </g>
    </g>
</svg>

<svg width="60" height="60" xmlns="http://www.w3.org/2000/svg"><g id="Page-1" stroke="none" stroke-width="1" fill="none" fill-rule="evenodd"><g id="stage-mic" fill="#9B9B9B"><path d="M31.14 47.452v7.642h7.415c1.71 0 1.71 2.281 0 2.281h-17.11c-1.71 0-1.71-2.281 0-2.281h7.414v-7.642c-9.125-.628-15.797-7.757-15.797-16.882 0-1.71 2.395-1.71 2.395 0 0 7.985 6.502 14.543 14.543 14.543s14.543-6.558 14.543-14.543c0-1.71 2.395-1.71 2.395 0 0 9.125-6.672 16.254-15.797 16.882zm9.696-33.934v16.995c0 6.046-4.79 10.893-10.836 10.893-6.045 0-10.836-4.904-10.836-10.893V13.518c0-5.988 4.79-10.893 10.836-10.893 6.045 0 10.836 4.905 10.836 10.893zm-2.281 16.995V27.72h-5.133c-1.14 0-1.14-1.711 0-1.711h5.133v-2.852h-5.133c-1.14 0-1.14-1.71 0-1.71h5.133v-2.852h-5.133c-1.14 0-1.14-1.711 0-1.711h5.133v-3.365c0-4.677-3.878-8.498-8.555-8.498s-8.555 3.821-8.555 8.498v3.365h5.133c1.14 0 1.14 1.71 0 1.71h-5.133v2.852h5.133c1.14 0 1.14 1.711 0 1.711h-5.133v2.852h5.133c1.14 0 1.14 1.71 0 1.71h-5.133v2.795c0 4.677 3.878 8.498 8.555 8.498s8.555-3.821 8.555-8.498z" id="Shape"/></g></g></svg>
